icons/.icons/Papirus/22x22/panel/gpm-monitor.svg

<svg xmlns="http://www.w3.org/2000/svg" width="22" height="22" version="1.1">
 <defs>
  <style id="current-color-scheme" type="text/css">
   .ColorScheme-Text { color:#dfdfdf; } .ColorScheme-Highlight { color:#4285f4; }
  </style>
 </defs>
 <path style="fill:currentColor" class="ColorScheme-Text" d="m 11.779306,5.0015291 c -0.05156,-0.00555 -0.102813,0.00986 -0.142578,0.044922 -0.03976,0.03509 -0.06339,0.085636 -0.06836,0.140625 l -0.226562,2.4863281 c -0.01035,0.1144062 0.06903,0.2174449 0.175781,0.2285156 0.618358,0.06421 1.21365,0.2429923 1.771484,0.53125 0.02654,0.013733 0.057,0.019531 0.08594,0.019531 0.02159,0 0.04169,-0.00396 0.0625,-0.011719 0.0486,-0.01819 0.08897,-0.055749 0.111328,-0.1054688 l 1.011719,-2.25 c 0.04662,-0.1035318 0.0068,-0.2274557 -0.08984,-0.2773438 C 13.623385,5.370388 12.717353,5.099007 11.779306,5.0015291 Z m -1.8632815,0.037109 c -0.93355,0.1357348 -1.828228,0.4449011 -2.660156,0.9179688 -0.09472,0.053868 -0.130275,0.1796522 -0.08008,0.2812501 l 1.091797,2.2070312 c 0.03488,0.070488 0.102305,0.1093751 0.171875,0.109375 0.03069,0 0.06088,-0.00696 0.08984,-0.023437 0.54803,-0.3115766 1.137228,-0.5141099 1.7519525,-0.6035161 0.106248,-0.015443 0.180421,-0.1204452 0.166016,-0.234375 l -0.3125,-2.4765626 C 10.120358,5.1024708 10.022007,5.0233074 9.9160185,5.0386381 Z m 5.9863285,1.7968751 c -0.05122,0.00569 -0.09839,0.033347 -0.13086,0.076172 l -1.470703,1.9375 c -0.03247,0.042853 -0.04632,0.097439 -0.04101,0.1523438 0.0053,0.054905 0.03034,0.1057594 0.07031,0.140625 0.48288,0.4209375 0.888336,0.922558 1.207031,1.494141 0.03639,0.06519 0.101877,0.101562 0.167969,0.101562 0.03391,0 0.06842,-0.0093 0.09961,-0.0293 l 2,-1.2812499 c 0.04416,-0.028335 0.07529,-0.073393 0.08789,-0.1269531 0.01255,-0.05356 0.005,-0.1107814 -0.02148,-0.1582031 -0.481887,-0.8642126 -1.096363,-1.6254218 -1.826172,-2.2617188 -0.03997,-0.03481 -0.09115,-0.050443 -0.142578,-0.044922 z M 5.8613365,7.0425445 c -0.05163,-0.00353 -0.101958,0.014346 -0.140625,0.050781 -0.706855,0.6660896 -1.293758,1.4508255 -1.74414,2.3339843 -0.02468,0.048459 -0.03011,0.1072133 -0.01563,0.1601563 0.01448,0.052971 0.04659,0.096589 0.0918,0.1230468 l 2.044921,1.1992191 c 0.02957,0.01735 0.06225,0.02539 0.09375,0.02539 0.06868,0 0.134654,-0.0402 0.169922,-0.109375 0.297676,-0.583747 0.686712,-1.1023567 1.154297,-1.5429691 0.03875,-0.036379 0.06118,-0.087449 0.06445,-0.1425781 0.0033,-0.055073 -0.01289,-0.1108919 -0.04687,-0.1523438 l -1.539062,-1.875 C 5.9601595,7.071405 5.9127595,7.046104 5.8613365,7.0425445 Z M 18.392586,10.83356 16.167977,11.579654 c -0.102354,0.03436 -0.159006,0.152049 -0.126953,0.261719 0.159583,0.546134 0.240234,1.116414 0.240234,1.695312 0,0.08523 -0.0018,0.172015 -0.0059,0.265625 -0.0024,0.05513 0.01606,0.109611 0.05078,0.150391 0.03469,0.04081 0.08334,0.06584 0.134766,0.06836 l 2.328124,0.115234 c 0.0031,1.41e-4 0.0048,0 0.0078,0 0.103112,0 0.188497,-0.08767 0.193359,-0.199218 0.006,-0.138875 0.0098,-0.26987 0.0098,-0.400392 -5.2e-5,-0.874835 -0.123089,-1.738068 -0.365234,-2.566406 -0.0321,-0.109726 -0.139939,-0.171164 -0.242188,-0.136719 z M 7.6132895,11.073794 c -0.04224,0.0053 -0.08289,0.02534 -0.115234,0.05859 -0.06473,0.06645 -0.07931,0.171162 -0.03711,0.25586 l 1.720703,3.457031 c -0.0063,0.06659 -0.0098,0.1353 -0.0098,0.203125 0,0.521526 0.189227,1.010155 0.533203,1.378906 0.3440035,0.368779 0.8006225,0.572266 1.2871105,0.572266 0.486487,0 0.945086,-0.203543 1.289062,-0.572266 0.344003,-0.368751 0.533203,-0.85738 0.533203,-1.378906 0,-0.521527 -0.189226,-1.012108 -0.533203,-1.38086 -0.343514,-0.368255 -0.80138,-0.57172 -1.287109,-0.572265 h -0.002 c -0.03284,4.4e-5 -0.06707,8.4e-5 -0.09961,0.002 L 7.7382075,11.103091 c -0.0386,-0.02445 -0.08276,-0.03456 -0.125,-0.0293 z m -4.095703,0.06641 c -0.0497,-0.01441 -0.103757,-0.0079 -0.148437,0.01953 -0.04468,0.02747 -0.07633,0.07367 -0.08984,0.126954 -0.184812,0.730664 -0.279297,1.487385 -0.279297,2.25 0,0.130522 0.0037,0.261517 0.0098,0.40039 0.0048,0.111575 0.0902,0.199219 0.193359,0.199218 0.003,0 0.0067,1.69e-4 0.0098,0 l 2.326172,-0.115234 c 0.05143,-0.0025 0.100125,-0.02758 0.134765,-0.06836 0.03469,-0.04078 0.05319,-0.09526 0.05078,-0.15039 -0.004,-0.09364 -0.0059,-0.180423 -0.0059,-0.265625 0,-0.505046 0.06166,-1.00446 0.183594,-1.486328 0.028,-0.11093 -0.03324,-0.22573 -0.136718,-0.255859 z"/>
</svg>

<svg xmlns="http://www.w3.org/2000/svg" width="22" height="22" version="1.1">
 <defs>
  <style id="current-color-scheme" type="text/css">
   .ColorScheme-Text { color:#dfdfdf; } .ColorScheme-Highlight { color:#4285f4; } .ColorScheme-NeutralText { color:#ff9800; } .ColorScheme-PositiveText { color:#4caf50; } .ColorScheme-NegativeText { color:#f44336; }
  </style>
 </defs>
 <path style="fill:currentColor" class="ColorScheme-Text" d="M 11.779,5.0011 C 11.728,4.9956 11.676,5.011 11.637,5.0461 11.597,5.0811 11.573,5.1317 11.568,5.1867 L 11.342,7.673 C 11.331,7.7874 11.411,7.8905 11.518,7.9015 12.136,7.9657 12.731,8.1445 13.289,8.4328 13.38,8.4853 13.488,8.4406 13.549,8.3351 L 14.561,6.0851 C 14.607,5.9816 14.567,5.8577 14.471,5.8078 13.623,5.37 12.717,5.0986 11.779,5.0011 Z M 9.916,5.0382 C 8.9825,5.174 8.0878,5.4831 7.2559,5.9562 7.1611,6.0101 7.1256,6.1359 7.1758,6.2375 L 8.2676,8.4445 C 8.3025,8.515 8.3699,8.5539 8.4395,8.5539 8.4702,8.5539 8.5003,8.5469 8.5293,8.5304 9.077,8.2188 9.667,8.0163 10.281,7.9269 10.388,7.9115 10.462,7.8065 10.447,7.6925 L 10.135,5.216 C 10.12,5.1021 10.022,5.0229 9.916,5.0382 Z M 15.902,6.8351 C 15.851,6.8408 15.804,6.8685 15.771,6.9113 L 14.301,8.8488 C 14.268,8.8916 14.254,8.9462 14.26,9.002 14.265,9.056 14.29,9.107 14.33,9.142 14.813,9.563 15.218,10.065 15.537,10.636 15.574,10.701 15.639,10.738 15.705,10.738 15.739,10.738 15.774,10.729 15.805,10.709 L 17.805,9.427 C 17.898,9.368 17.922,9.23 17.871,9.142 17.389,8.2775 16.775,7.5163 16.045,6.88 16.005,6.8452 15.954,6.8296 15.902,6.8351 Z M 5.8613,7.0421 C 5.8097,7.0386 5.7594,7.0565 5.7207,7.0929 5.0139,7.759 4.427,8.5438 3.9766,9.427 3.9519,9.476 3.9465,9.535 3.9609,9.587 3.9754,9.64 4.0075,9.684 4.0527,9.711 L 6.0977,10.91 C 6.1893,10.963 6.3022,10.928 6.3613,10.826 6.659,10.242 7.048,9.723 7.5156,9.283 7.5544,9.246 7.5768,9.195 7.5801,9.14 7.5834,9.085 7.5672,9.029 7.5332,8.9875 L 5.9941,7.1125 C 5.9602,7.071 5.9128,7.0457 5.8613,7.0421 Z M 18.393,10.834 16.168,11.58 C 16.066,11.614 16.009,11.732 16.041,11.841 16.201,12.388 16.294,12.958 16.281,13.537 L 16.275,13.802 C 16.272,13.888 16.346,14.021 16.461,14.021 L 18.797,14.136 C 18.9,14.136 18.985,14.049 18.99,13.937 18.996,13.798 19,13.537 19,13.537 19,12.662 18.877,11.799 18.635,10.97 18.603,10.861 18.495,10.799 18.393,10.834 Z M 10.893,13.097 7.7382,11.103 C 7.7382,11.103 7.6554,11.069 7.6132,11.074 7.6132,11.074 7.5304,11.099 7.4981,11.132 7.4333,11.199 7.4187,11.304 7.4609,11.388 L 9.182,14.845 C 9.182,14.845 9.172,14.981 9.172,15.048 9.172,15.57 9.361,16.059 9.705,16.427 10.049,16.796 10.506,17 10.992,17 11.479,17 11.937,16.796 12.281,16.427 12.625,16.059 12.814,15.57 12.814,15.048 12.814,14.527 12.625,14.036 12.281,13.668 11.938,13.299 11.48,13.096 10.994,13.095 Z M 3.5176,11.14 C 3.4679,11.126 3.4138,11.132 3.3691,11.16 3.3245,11.187 3.2928,11.233 3.2793,11.287 3.0945,12.017 3,12.774 3,13.537 3,13.667 3.0098,13.937 3.0098,13.937 3.0146,14.049 3.1,14.136 3.2032,14.136 L 5.5391,14.021 C 5.6374,14.017 5.7247,13.927 5.7247,13.802 5.7207,13.709 5.7188,13.537 5.7188,13.537 5.7188,13.032 5.7804,12.532 5.9024,12.05 5.9304,11.939 5.8691,11.825 5.7657,11.795 Z"/>
</svg>
